X:1
T:A Virgin and Mother
T:John Merbecke (otherwise Marbeck) (c1505-c1585)
T:A Virgin and Mother
T:Public Domain
T:Public Domain
T:Public Domain
C:John Merbecke (otherwise Marbeck) (c1505-c1585)
Z:Public Domain
%%score [ 1 2 3 ]
L:1/8
M:2/2
K:F
V:1 treble nm="P1" snm="S."
V:2 alto nm="P2" snm="A."
V:3 tenor transpose=-12 nm="P3" snm="T."
V:1
 x8 |[M:4/4] z8 | z8 | z2 G2 c3 A | Bc A2 cc f2 | ed c2 BA/A/ c>c | G2 z c2 def | ed/c/ ef ga f2 | %8
w: |||A queen ce-|les- ti- al, as this day|mak- eth ex- em- pli- fi- ca- ti-|on, bare our Sa- *|* vi- our, our Sa- * * vi-|
 e2 d2 z dcA | B>B A2 z c_ed- | dc f3 (e/d/) c2 | z e a3 g fe/d/ | c/d/B AF AB c>c | %13
w: our Christ the Lord im|pe- ri- al, the Lord _|_ im- pe- ri- * al,|who suff- * * * *|* * 'red death for our sal- va- ti-|
 B z z A =B/B/c de | ^c z dc BA>Ac | d/e/f e/f/d f/e/4d/4c d/c/4B/4A | Bc A2 z A c2 | B A2 G B3 B | %18
w: on, it pleas- sed him so to|do for our trans- gres- * *||* si- on, where- fore|with meek de- vo- ti-|
 F2 z A d2 cc | f2 e2 z e f2 | gg a3 g f2 | egfe>cd3/2c/4B/4c/d/ | BA !fermata!A2 z4 | z4 z2 d2- | %24
w: on sing we in the|ho- nour of his|in- car- na- * *||* ti- on.|A|
 d2 c2 A2 c2- | ccBA G2 z c- | cd e2 dc f2- | fe d2 z cdd | f2 ef d2 ^cA/=B/ | %29
w: _ maid im- ma|_ cu- * * late, of|_ all wo- men the flo-|* * wer, hath borne Christ|Je- su our Sa- vi- our, our|
 c/d/e/f/ g/f/e/d/ c/B/c d2 | c>f ed z Ade | f2 ed e>d ^c/=B/c | !fermata!d4 |] %33
w: _ _ _ _ _ _ _ _ _ _ _ Sa-|* * vi- our, hath borne Christ|Je- su our Sa- * * * vi-|our.|
V:2
 x8 |[M:4/4][K:treble] z4 D2 A2 | FG A3 G/F/ EF | E4 z C F>E | DE F2 F A2 A | GG A2 GF E2- | %6
w: |A vir-|gin and mo- * * * *|ther, a queen ce-|les- ti- al, as this day|mak- eth ex- em- * pli-|
 EE F>G AB cB/A/ | G2 z2 z F2 F | GA BA/G/ FG A2 | z2 z A GF B>B | A3 G/A/ B/A/G/F/ EF | %11
w: * fi- ca- * * * * * ti-|on, bare our|Sa- * * * * vi- our Christ|the Lord im- pe- ri-||
 E2 z2 z E A2- | AG F2 z GFE | G>G FC D/D/E FG | E2 F>C D/E/F E2 | z AGF A>A DF | DC F2 C F2 E | %17
w: al who suff-|* 'red death for our sal-|* ti- on, it pleas- ed him so to|do _ _ _ _ _ _|for our trans- gres- * * *|* si- on, where- for with|
 F2 E2 D4 | D2 C F2 G A/A/c | B A2 c2 G/G/ BA- | A/G<cB/A/G/ FG/A/ BA- | A/B/G A2 GF E2 | %22
w: meek de- vo-|* on sing we in the ho|nour of his in car- na- *||* * * * * * ti-|
 !fermata!D4 z2 A2- | A2 G2 G2 B2- | BB A4 z2 | z C D2 E2 DC | F2 G3 A2 F | A>G F/E/D A2 z A | %28
w: on. A|_ maid im- ma-|* cu- late,|of all wo- men the|flo- * * *|* * * * * wer, hath|
 A3 A FG A2- | AG F>F E2 z D | EFGB AcBA- | A/G/A G3 E>DE | !fermata!D4 |] %33
w: borne Christ Je- * su|_ our Sa- vi- our, hath|borne Christ Je- su\_our Sa- * * *|* * * * * * vi-|our.|
V:3
 x8 |[M:4/4][K:treble-8] d4 f2 cc | d3 c/B/ A2 A2 | c3 c A2 F2 | G2 F2 z F2 F | cBAA d2 AA | %6
w: |A vir- gin and|Mo- * * ther, a|queen ce- les- ti-|* al, as this|day mak- eth ex- em- pli- fi-|
 c>c F2 z4 | z c2 d ef d2 | ccGA B>B F2 | GD F3/2G/4A/4 BA G2 | F2 z2 D2 A2- | AG FE/D/ FE D2 | %12
w: ca- ti- on,|bare our Sa- vi- our|Christ the Lord im- pe- ri- al,|im- pe- * * * * * ri-|al who suff-|* * * * * * 'red death|
 z2 z d cB A>A | G2 DF DAFE | A2 z A GF A>A | D2 z d2 A B/A/4G/4F | GA F4 z A | d>c c2 G2 B2 | %18
w: for our sal- va- ti-|on, it pleas- ed him so to|do for our trans- gres- si-|on, trans- gres- * * * *|* si- on, where-|fore with meek de- vo-|
 BG z F B2 AA | d2 c3 c d2 | ee f3 e d2 | cB A>B cd A2 | !fermata!D4 d4 | A2 B3 G2 G | D2 z2 F3 G | %25
w: ti- on sing we in the|ho- nour of his|in- car- na- * *|* * * * * * ti-|on. A|maid im- ma- cu-|late, of all|
 A2 GF c4 | F2 c2 BA d2 | z cdd f3 d- | dAcA B2 A2- | A2 z F GA B2 | A2 G2 F2 Bc | d2 G3 A3 | %32
w: wo- men the flo-|* * * * wer,|hath borne Christ Je- su|_ our Sa- * vi- our,|_ hath borne Christ Je-|* su our Sa- *|* * vi-|
 !fermata!D4 |] %33
w: our.|

